!!!OTL: Springtanz der Ditmarsen. / Mel. Moeder, liebe Moeder myn, mocht ick ter linden gaen.
!!!ARE: Europa, Mitteleuropa, Deutschland
!!!SCT: A0292
!!!TXL: @@NDS
!!!YEM: Copyright 1995, estate of Helmut Schaffrath.
**kern	**text
*M4/2	*
*met(c|)	*
*clefC3	*
*k[]	*
*d:dor	*
!LO:TX:a:t=dor.	!
{2d	2._Och
=1	=1
2.d	Mömken,
4c#i	.
*lig	*
4d	le-
4c#	.
*Xlig	*
*lig	*
4d	-ve
4e	.
*Xlig	*
=2	=2
1f	Mo-
2e}	-der,
{2e	mocht
=3	=3
2d	ick
2e	tom
2d	Dan-
2c	-ʒe
=4	=4
1B	gan,
2r}	.
{2d\	dar
=5	=5
2A	hö-
2B	-re
2c	ick
2d	de
=6	=6
2e	Pi-
*lig	*
4d	-pen
4c	.
*Xlig	*
2B}	gan
{4e/	und
4e/	de
=7	=7
*lig	*
4e	le-
4d	.
4e	.
4f	.
2a	.
*Xlig	*
2g	-ve
=8	=8
2f	Trummen
*lig	*
4e	.
4d	.
*Xlig	*
2c}	ſchlan,
{4d/	und
4d/	de
=9	=9
2e	le-
2d	-ve
*lig	*
4c#/	Trum-
4B	.
*Xlig	*
*lig	*
4d	-men
4c#	.
*Xlig	*
=10	=10
1.dll}	ſchlan.
==	==
!!!GTL: Tanz- und Kranzlieder
!!!AGN: Romanze, Ballade, Lied
!! Souterliedekens ad Ps. 60.
!!!ONB: ESAC (Essen Associative Code) Database: ALTDEU
!!!AMT: simple quadruple
!!!AIN: vox
!!!EED: Helmut Schaffrath
!!!EEV: 1.0
!!!RDF**kern: i = editorial accidental
!!!RDF**kern: l = terminal long
!!!AMD: Dorian
!!!URL-scan: https://rosdok.uni-rostock.de/mcrviewer/recordIdentifier/rosdok_ppn738218359/iview2/phys_0447.iview2?x=-495.6391625615763&y=279.51674877572805&scale=0.4629418472063854&rotation=0&layout=singlePageLayout&logicalDiv=log_0012
!!!ENC: Anna Maria Matuszewska
!!!EEV: 2024/12/03
*-	*-
